packages/axiom-materials/src/icon_svgs/speech.svg

<svg height="16" viewBox="0 0 16 16" width="16" xmlns="http://www.w3.org/2000/svg"><path d="m11.4647056 0c1.4002044 0 2.5352944 1.04516745 2.5352944 2.33029032v5.83941936c0 1.28698381-1.1456788 2.33029032-2.5352944 2.33029032h-.6465238l-3.8181818 3.5v-3.5h-4.46470562c-1.40020442 0-2.53529438-1.04516745-2.53529438-2.33029032v-5.83941936c0-1.28698381 1.14567876-2.33029032 2.53529438-2.33029032zm-.4647056 5.5h-8v2h8zm0-3h-8v2h8z" fill-rule="evenodd" transform="translate(1 1)"/></svg>

<?xml version="1.0" encoding="UTF-8"?>
<svg width="16px" height="16px" viewBox="0 0 16 16" version="1.1" xmlns="http://www.w3.org/2000/svg" xmlns:xlink="http://www.w3.org/1999/xlink">
    <title>Icon/Annotate Icon</title>
    <g id="Icon/Annotate-Icon" stroke="none" stroke-width="1" fill="none" fill-rule="evenodd">
        <g id="Symbols---Icon---Annotate-Icon" transform="translate(1.000000, 1.000000)" fill="#000000">
            <path d="M11.4647056,0 C12.86491,0 14,1.04516745 14,2.33029032 L14,8.16970968 C14,9.45669349 12.8543212,10.5 11.4647056,10.5 L10.8181818,10.5 L7,14 L7,10.5 L2.53529438,10.5 C1.13508996,10.5 0,9.45483255 0,8.16970968 L0,2.33029032 C0,1.04330651 1.14567876,0 2.53529438,0 L11.4647056,0 Z M11,5.5 L3,5.5 L3,7.5 L11,7.5 L11,5.5 Z M11,2.5 L3,2.5 L3,4.5 L11,4.5 L11,2.5 Z" id="Shape"></path>
        </g>
    </g>
</svg>
